X:87
T:Mcneils of Ugadale, The 
C:Joe Buchanan's Scottish Tome - Page 075.0
I:075 0
C:P.M. John Mackenzie
R:Jig
Z:Carl Allison
L:1/8
M:6/8
K:Amaj
e|"A"c>dB A>AA | "A"(c<e)e e>cA | "D"f>ec e>fa| "A"a>ec "E7"e2 a|
"A"c>dB A>AA | "A"(c<e)e e>cA | "D"(c<d)B e>fc | "A"A>AA "E7"A2 :|
e | "A"a>gf {f}e2 a | "A"e>fe e>cA | "A"a>gf {f}e2 a | "A"a>ec "E7"{c}(B2 e) |
"A"a>gf {f}e2 a | "A"e>fe e>cA | "A"(c<d)B "E7"e>fc | "A"A>AA A2 e |
"A"a>gf{f}e2  a | "A"e<fe e>cA | "A"a>gf {f}e2 a | "A"a>ec "E7"{c}(B2 e) |
"A"c>dB A>AA | "A"(c<e)e e>cA | "A"(c<d)B "E7"e>fc | "A"A>AA A2 |]
e | "A"{d}c3 A3 | "A"(c<e)e e>cA | "D"{g}f3 d2 a | "A"a>ec "E7"{c}B2 a |
"A"{d}c3 A3 | "A"(c<e)e e>cA | "D"(c<d)B "E7"e>fc | "A"A>AA A2 :|
e | "D"{g}f2 a d2 a | "A"e>fe e>cA | "D"{g}f2 a d2 a | "A"a>ec "E7"{B}(B2 e) |
"D"{g}f2 a d2 a | "A"e>fe e>cA | "A"c<dB "E7"e>fc | "A"A>AA A2 e |
"D"{g}f2 A d2 A | "A"e>fe e>cA | "D"{g}f2 A d2 A | "A"a>ec "E7"{c}(B2 a) |
"A"c>dB efc | "A"a>gf ecA | "A"(c<d)B "E7"e>fc | "A"A>AA A2 |]

